src/topics/icons/rails.svg

<svg height="330" preserveAspectRatio="xMidYMid" viewBox="0 0 256 330" width="256" xmlns="http://www.w3.org/2000/svg" xmlns:xlink="http://www.w3.org/1999/xlink"><linearGradient id="a" x1="35.204309%" x2="101.159369%" y1="65.07936%" y2="49.999995%"><stop offset="0" stop-color="#fff"/><stop offset="1" stop-color="#c0815e"/></linearGradient><radialGradient id="b" cx="50.000005%" cy="49.999968%" r="50.520521%"><stop offset="0" stop-color="#fff"/><stop offset="1" stop-color="#a94436"/></radialGradient><path d="m4.09607835 325.462814s.49664441-77.983599.49664441-157.259028c0-153.5511514-12.93847588-164.98797219 55.95761014-164.98797219h191.7684071v221.48334719c0 72.910299 13.628918 101.472064-62.993291 101.472064s-185.22937065-.708411-185.22937065-.708411z" fill="#a62c39"/><path d="m1.88695204 29.9171997s12.28825596 2.457647 22.93808056 20.4804126c10.6498037 18.0227657 67.1757686 158.1088337 67.1757686 158.1088337v-113.8711247l-52.4298656-85.1985343 14.7458821 18.0227657 27.8533746-22.93808062-36.0455313-2.45764701z" fill="url(#a)" transform="translate(160.317939 2.266048)"/><g transform="translate(50.147107 4.260545)"><path d="m3.10197465.88854405s81.10245585 54.06831785 120.42485035 64.71812155c39.322394 10.6498246 79.464023 22.1507705 79.464023 22.1507705l-92.571495 229.3487539 40.14163 1.638431 52.429865-128.603509-1.63843-190.07178363z" fill="url(#b)" opacity=".668224"/><path d="m78.4699 242.55748 82.418737 79.21979-155.32901534-1.394217s-4.91529402-49.972219-3.27686268-76.187141c1.63843134-26.214944 9.83060892-26.214944 9.83060892-26.214944z" fill="#fff" fill-opacity=".439614"/></g><g transform="translate(2.089463 4.260545)"><path d="m204.353137 322.021484-76.187162-78.644788-69.6334154-26.214943-54.06829701-120.4248501 57.34518051-95.84835885-36.7358899-.00000002-17.33242793 13.10747167-5.73450969 11.4690403.00000007 296.556426z" fill-opacity=".362319"/><path d="m251.048493 196.68134s-77.006378 24.576491-122.882518 47.514572c-45.8761192 22.938059-70.4526311 78.644788-70.4526311 78.644788s98.3060061-4.915294 135.1707531-3.276863 54.068318 1.638431 57.34518-49.972219c3.276863-51.61065.819216-72.910278.819216-72.910278z" fill="#83222d" opacity=".5"/></g><g fill="#fff" transform="translate(26.592321 248.822656)"><path d="m1.24061852 1.04473139v48.38412241h12.34088958v-12.6020724l11.2308624 11.2308625h18.9357564l-15.0180137-15.0180137s10.8043404-.1744702 11.6226367-15.8015623c0-14.33628468-10.817504-16.19333651-23.3105691-16.19333651zm12.92855098 13.12443811h10.643201v8.6190339h-10.643201z"/><path d="m67.5810617 1.24061852c-6.7567167-.03802822-16.1280408.58835093-16.1280408 13.32032518v33.6272916h12.6673681v-8.2272597h12.2755938v8.0313726h12.7326638v-35.2596844c0-11.05942201-12.2871068-11.49204528-18.8704607-11.49204528-.822914 0-1.711876.00626839-2.6771242 0zm-3.2647856 12.14500238h11.8838195v13.2550295h-11.8838195z"/><path d="m101.819855 1.272253h13.107467v46.285744h-13.107467z"/><path d="m128.649226 1.88663863v46.28573767h31.539856v-12.2882351h-18.637172v-34.20231172z"/><path d="m201.969123 1.47702034v12.49306506h-21.094819v4.5056967h9.011372c4.710506 0 14.541094-.2047674 14.541094 14.5410938 0 14.745903-6.758535 15.5651187-20.480413 15.5651187h-16.589123v-11.2642312h19.04677c5.734531 0 6.050792-1.8667469 6.050792-3.4934146 0-1.6266886-2.931914-2.3833248-8.894634-2.3833248-5.962721 0-17.022164-2.9298447-17.022164-14.398885 0-11.46901941 5.734531-15.7699069 17.203571-15.7699069 11.469019 0 18.227554.20476735 18.227554.20476735z"/></g><g fill="#fff" transform="translate(14.055544 16.892288)"><path d="m25.2668495 219.275913h108.9558305s-24.166894-54.887513-18.022787-105.269349c6.144128-50.3818165 45.876141-73.3198971 68.404603-75.7775441s34.816718 11.4690403 34.816718 11.4690403l4.915294-7.372941s-32.359071-32.76866866-73.319896-29.0822086c-40.960826 3.686481-69.2238185 30.7206399-86.8369659 63.4893085-17.6131682 32.7686689-27.8533746 55.7067279-34.8167182 90.1138279-6.9633437 34.4071-4.0960784 52.429866-4.0960784 52.429866z"/><path d="m3.5576029 164.3884 21.2996492 1.638432-3.6864809 21.299628-20.07081531-2.457647z"/><path d="m37.1454872 119.331476 5.7345306-15.974716-18.8419813-7.3729622-6.144128 17.2035502z"/><path d="m63.7700279 64.4439632 11.0594429-13.1074717-14.3363056-9.4209906-11.4690194 12.6978533z"/><path d="m92.8522364 13.6525289 9.8305876 11.8786377 13.517069-7.7825594-9.830588-11.05942196z"/><path d="m140.776405.13545987 2.457647 11.87863763 16.793953-.4096182-1.638452-10.64980376z"/><path d="m197.711968 12.8333132-.409619 7.3729411 11.469041 6.1441279 2.457647-3.6864809z"/><path d="m195.254321 44.3731479v6.144128l11.059422 1.2288339v-4.9153149z"/><path d="m160.028005 49.6980602 5.324891 9.8306089 7.78256-6.1441279-1.638432-6.5537463z"/><path d="m143.234052 62.3959135 8.192178 12.288256-4.915315 8.601775-11.878638-13.1074716z"/><path d="m126.849718 96.3934161-5.324912 10.6498039 13.926687 11.878658 3.276863-13.517089z"/><path d="m121.115208 133.667761-.819215 14.336305 17.20355 7.372941-.819216-13.517069z"/><path d="m126.030502 184.459195 4.096079 14.745903 21.709246 1.228834-7.782559-15.974737z"/></g><path d="m7.23020896 325.482774c.00097204-.152632.00097204-.152632.00558165-.895801.00630714-1.029076.00630714-1.029076.01576686-2.611243.01697815-2.859504.03589624-6.178474.05626926-9.919464.05820724-10.688285.11641396-22.615286.17074006-35.481447.15521862-36.760746.24835014-73.683122.24835014-108.371033 0-17.873823-.15344507-33.48251-.48264767-55.322315-1.00587323-66.7311697-.52208999-79.4406452 5.04785524-91.4336347 5.5953986-12.04779466 16.1006362-15.09782833 48.2582084-15.09782833h191.7684071l-3.134194-3.13419416v221.48334719c0 6.797315.073624 12.662249.251346 22.541271.684986 38.076311-.157918 48.90308-6.303794 58.937877-7.188257 11.736763-22.663109 16.858722-53.806649 16.858722-17.583874 0-38.269166-.040537-61.422995-.115657-18.624344-.060424-38.3664331-.141639-58.6812416-.238513-16.2473479-.077478-31.9363373-.16049-46.4793415-.243501-5.0900135-.029054-9.6731858-.056033-13.67606574-.080244-1.40097341-.008473-2.21989869-.013489-3.67589005-.022481-1.05567508-.00657-1.05567508-.00657-1.27399251-.007953zm-6.2882219 3.094326 3.13424705.019845c.21872962.001385.21872962.001385 1.27484119.007958 1.45644077.008995 2.27553078.014011 3.67681658.022487 4.00357492.024215 8.58745682.051198 13.67819952.080256 14.5448707.083022 30.2357977.166044 46.4852297.243532 20.3178058.096888 40.0630159.178116 58.6907959.238552 23.160088.07514 43.851852.115689 61.443332.115689 33.10772 0 50.523303-5.764313 59.152148-19.853224 7.069554-11.542948 7.938444-22.703503 7.225669-62.324512-.177092-9.84401-.250332-15.678337-.250332-22.428522v-221.48334719-3.13419417h-3.134194-191.7684071c-34.4814468 0-46.9242714 3.6125822-53.94337199 18.72583666-3.50853568 7.5544426-5.20394241 18.0133903-5.81900492 34.1717049-.47403051 12.4532611-.42456179 19.3162436.18863694 59.9967858.32876857 21.811011.48193567 37.391422.48193567 55.227839 0 34.678089-.09311014 71.591991-.24829427 108.344566-.05431487 12.863501-.11250918 24.78796-.17070298 35.473778-.02036733 3.739945-.03927958 7.057889-.05625173 9.916382-.00945545 1.581455-.00945545 1.581455-.01575842 2.609849-.00460547.742501-.02553414 4.028739-.02553414 4.028739z" fill="#5e000e"/></svg>

<?xml version="1.0" encoding="UTF-8" standalone="no" ?>
<svg width="256px" height="330px" viewBox="0 0 256 330" version="1.1" xmlns="http://www.w3.org/2000/svg" xmlns:xlink="http://www.w3.org/1999/xlink" preserveAspectRatio="xMidYMid">
    <defs>
        <linearGradient x1="35.2043092%" y1="65.0793604%" x2="101.159369%" y2="49.9999949%" id="linearGradient-1">
            <stop stop-color="#FFFFFF" offset="0%"></stop>
            <stop stop-color="#C0815E" offset="100%"></stop>
        </linearGradient>
        <radialGradient cx="50.0000052%" cy="49.9999678%" fx="50.0000052%" fy="49.9999678%" r="50.5205207%" id="radialGradient-2">
            <stop stop-color="#FFFFFF" offset="0%"></stop>
            <stop stop-color="#A94436" offset="100%"></stop>
        </radialGradient>
    </defs>
    <g>
        <path d="M4.09607835,325.462814 C4.09607835,325.462814 4.59272276,247.479215 4.59272276,168.203786 C4.59272276,14.6526346 -8.34575312,3.21581381 60.5503329,3.21581381 L252.31874,3.21581381 L252.31874,224.699161 C252.31874,297.60946 265.947658,326.171225 189.325449,326.171225 C112.70324,326.171225 4.09607835,325.462814 4.09607835,325.462814 L4.09607835,325.462814 Z" fill="#A62C39"></path>
        <g transform="translate(160.317939, 2.266048)" fill="url(#linearGradient-1)">
            <path d="M1.88695204,29.9171997 C1.88695204,29.9171997 14.175208,32.3748467 24.8250326,50.3976123 C35.4748363,68.420378 92.0008012,208.506446 92.0008012,208.506446 L92.0008012,94.6353213 L39.5709356,9.436787 L54.3168177,27.4595527 L82.1701923,4.52147208 L46.124661,2.06382507 L1.88695204,29.9171997 Z"></path>
        </g>
        <g transform="translate(50.147107, 4.260545)">
            <path d="M3.10197465,0.888544046 C3.10197465,0.888544046 84.2044305,54.9568619 123.526825,65.6066656 C162.849219,76.2564902 202.990848,87.7574361 202.990848,87.7574361 L110.419353,317.10619 L150.560983,318.744621 L202.990848,190.141112 L201.352418,0.0693283749 L3.10197465,0.888544046 Z" opacity="0.66822426" fill="url(#radialGradient-2)"></path>
            <path d="M78.4699,242.55748 L160.888637,321.77727 L5.55962166,320.383053 C5.55962166,320.383053 0.644327637,270.410834 2.28275898,244.195912 C3.92119032,217.980968 12.1133679,217.980968 12.1133679,217.980968 L78.4699,242.55748 Z" fill-opacity="0.43961355" fill="#FFFFFF"></path>
        </g>
        <g transform="translate(2.089463, 4.260545)">
            <path d="M204.353137,322.021484 L128.165975,243.376696 L58.5325596,217.161753 L4.46426259,96.7369029 L61.8094431,0.888544046 L25.0735532,0.888544027 L7.74112527,13.9960157 L2.00661558,25.465056 L2.00661565,322.021482 L204.353137,322.021484 Z" fill-opacity="0.36231887" fill="#000000"></path>
            <path d="M251.048493,196.68134 C251.048493,196.68134 174.042115,221.257831 128.165975,244.195912 C82.2898558,267.133971 57.7133439,322.8407 57.7133439,322.8407 C57.7133439,322.8407 156.01935,317.925406 192.884097,319.563837 C229.748844,321.202268 246.952415,321.202268 250.229277,269.591618 C253.50614,217.980968 251.048493,196.68134 251.048493,196.68134 L251.048493,196.68134 Z" opacity="0.5" fill="#83222D"></path>
        </g>
        <g transform="translate(26.592321, 248.822656)" fill="#FFFFFF">
            <path d="M1.24061852,1.04473139 L1.24061852,49.4288538 L13.5815081,49.4288538 L13.5815081,36.8267814 L24.8123705,48.0576439 L43.7481269,48.0576439 L28.7301132,33.0396302 C28.7301132,33.0396302 39.5344536,32.86516 40.3527499,17.2380679 C40.3527499,2.90178322 29.5352459,1.04473139 17.0421808,1.04473139 L1.24061852,1.04473139 L1.24061852,1.04473139 Z M14.1691695,14.1691695 L24.8123705,14.1691695 L24.8123705,22.7882034 L14.1691695,22.7882034 L14.1691695,14.1691695 L14.1691695,14.1691695 Z"></path>
            <path d="M67.5810617,1.24061852 C60.824345,1.2025903 51.4530209,1.82896945 51.4530209,14.5609437 L51.4530209,48.1882353 L64.120389,48.1882353 L64.120389,39.9609756 L76.3959828,39.9609756 L76.3959828,47.9923482 L89.1286466,47.9923482 L89.1286466,12.7326638 C89.1286466,1.67324179 76.8415398,1.24061852 70.2581859,1.24061852 C69.4352719,1.24061852 68.5463099,1.24688691 67.5810617,1.24061852 L67.5810617,1.24061852 Z M64.3162761,13.3856209 L76.2000956,13.3856209 L76.2000956,26.6406504 L64.3162761,26.6406504 L64.3162761,13.3856209 L64.3162761,13.3856209 Z"></path>
            <rect x="101.819855" y="1.27225299" width="13.1074666" height="46.2857439"></rect>
            <path d="M128.649226,1.88663863 L128.649226,48.1723763 L160.189082,48.1723763 L160.189082,35.8841412 L141.55191,35.8841412 L141.55191,1.68182948 L128.649226,1.88663863 Z"></path>
            <path d="M201.969123,1.47702034 L201.969123,13.9700854 L180.874304,13.9700854 L180.874304,18.4757821 L189.885676,18.4757821 C194.596182,18.4757821 204.42677,18.2710147 204.42677,33.0168759 C204.42677,47.7627789 197.668235,48.5819946 183.946357,48.5819946 L167.357234,48.5819946 L167.357234,37.3177634 L186.404004,37.3177634 C192.138535,37.3177634 192.454796,35.4510165 192.454796,33.8243488 C192.454796,32.1976602 189.522882,31.441024 183.560162,31.441024 C177.597441,31.441024 166.537998,28.5111793 166.537998,17.042139 C166.537998,5.57311959 172.272529,1.2722321 183.741569,1.2722321 C195.210588,1.2722321 201.969123,1.47699945 201.969123,1.47699945 L201.969123,1.47702034 Z"></path>
        </g>
        <g transform="translate(14.055544, 16.892288)" fill="#FFFFFF">
            <path d="M25.2668495,219.275913 L134.22268,219.275913 C134.22268,219.275913 110.055786,164.3884 116.199893,114.006564 C122.344021,63.6247475 162.076034,40.6866669 184.604496,38.2290199 C207.132958,35.7713729 219.421214,49.6980602 219.421214,49.6980602 L224.336508,42.3251192 C224.336508,42.3251192 191.977437,9.55645054 151.016612,13.2429106 C110.055786,16.9293916 81.7927935,43.9635505 64.1796461,76.7322191 C46.5664779,109.500888 36.3262715,132.438947 29.3629279,166.846047 C22.3995842,201.253147 25.2668495,219.275913 25.2668495,219.275913 L25.2668495,219.275913 Z"></path>
            <path d="M3.5576029,164.3884 L24.8572521,166.026832 L21.1707712,187.32646 L1.09995589,184.868813 L3.5576029,164.3884 Z"></path>
            <path d="M37.1454872,119.331476 L42.8800178,103.35676 L24.0380365,95.9837978 L17.8939085,113.187348 L37.1454872,119.331476 Z"></path>
            <path d="M63.7700279,64.4439632 L74.8294708,51.3364915 L60.4931652,41.9155009 L49.0241458,54.6133542 L63.7700279,64.4439632 Z"></path>
            <path d="M92.8522364,13.6525289 L102.682824,25.5311666 L116.199893,17.7486072 L106.369305,6.68918524 L92.8522364,13.6525289 Z"></path>
            <path d="M140.776405,0.135459872 L143.234052,12.0140975 L160.028005,11.6044793 L158.389553,0.954675543 L140.776405,0.135459872 Z"></path>
            <path d="M197.711968,12.8333132 L197.302349,20.2062543 L208.77139,26.3503822 L211.229037,22.6639013 L197.711968,12.8333132 Z"></path>
            <path d="M195.254321,44.3731479 L195.254321,50.5172759 L206.313743,51.7461098 L206.313743,46.8307949 L195.254321,44.3731479 Z"></path>
            <path d="M160.028005,49.6980602 L165.352896,59.5286691 L173.135456,53.3845412 L171.497024,46.8307949 L160.028005,49.6980602 Z"></path>
            <path d="M143.234052,62.3959135 L151.42623,74.6841695 L146.510915,83.2859445 L134.632277,70.1784729 L143.234052,62.3959135 Z"></path>
            <path d="M126.849718,96.3934161 L121.524806,107.04322 L135.451493,118.921878 L138.728356,105.404789 L126.849718,96.3934161 Z"></path>
            <path d="M121.115208,133.667761 L120.295993,148.004066 L137.499543,155.377007 L136.680327,141.859938 L121.115208,133.667761 Z"></path>
            <path d="M126.030502,184.459195 L130.126581,199.205098 L151.835827,200.433932 L144.053268,184.459195 L126.030502,184.459195 Z"></path>
        </g>
        <path d="M7.23020896,325.482774 C7.231181,325.330142 7.231181,325.330142 7.23579061,324.586973 C7.24209775,323.557897 7.24209775,323.557897 7.25155747,321.97573 C7.26853562,319.116226 7.28745371,315.797256 7.30782673,312.056266 C7.36603397,301.367981 7.42424069,289.44098 7.47856679,276.574819 C7.63378541,239.814073 7.72691693,202.891697 7.72691693,168.203786 C7.72691693,150.329963 7.57347186,134.721276 7.24426926,112.881471 C6.23839603,46.1503013 6.72217927,33.4408258 12.2921245,21.4478363 C17.8875231,9.40004164 28.3927607,6.35000797 60.5503329,6.35000797 L252.31874,6.35000797 L249.184546,3.21581381 L249.184546,224.699161 C249.184546,231.496476 249.25817,237.36141 249.435892,247.240432 C250.120878,285.316743 249.277974,296.143512 243.132098,306.178309 C235.943841,317.915072 220.468989,323.037031 189.325449,323.037031 C171.741575,323.037031 151.056283,322.996494 127.902454,322.921374 C109.27811,322.86095 89.5360209,322.779735 69.2212124,322.682861 C52.9738645,322.605383 37.2848751,322.522371 22.7418709,322.43936 C17.6518574,322.410306 13.0686851,322.383327 9.06580516,322.359116 C7.66483175,322.350643 6.84590647,322.345627 5.38991511,322.336635 C4.33424003,322.330065 4.33424003,322.330065 4.1159226,322.328682 L7.23020896,325.482774 L7.23020896,325.482774 Z M0.941987064,328.5771 L4.07623411,328.596945 C4.29496373,328.59833 4.29496373,328.59833 5.3510753,328.604903 C6.80751607,328.613898 7.62660608,328.618914 9.02789188,328.62739 C13.0314668,328.651605 17.6153487,328.678588 22.7060914,328.707646 C37.2509621,328.790668 52.9418891,328.87369 69.1913211,328.951178 C89.5091269,329.048066 109.254337,329.129294 127.882117,329.18973 C151.042205,329.26487 171.733969,329.305419 189.325449,329.305419 C222.433169,329.305419 239.848752,323.541106 248.477597,309.452195 C255.547151,297.909247 256.416041,286.748692 255.703266,247.127683 C255.526174,237.283673 255.452934,231.449346 255.452934,224.699161 L255.452934,3.21581381 L255.452934,0.0816196397 L252.31874,0.0816196397 L60.5503329,0.0816196397 C26.0688861,0.0816196397 13.6260615,3.69420184 6.60696091,18.8074563 C3.09842523,26.3618989 1.4030185,36.8208466 0.787955986,52.9791612 C0.313925481,65.4324223 0.3633942,72.2954048 0.976592934,112.975947 C1.3053615,134.786958 1.4585286,150.367369 1.4585286,168.203786 C1.4585286,202.881875 1.36541846,239.795777 1.21023433,276.548352 C1.15591946,289.411853 1.09772515,301.336312 1.03953135,312.02213 C1.01916402,315.762075 1.00025177,319.080019 0.983279623,321.938512 C0.973824166,323.519967 0.973824166,323.519967 0.967521199,324.548361 C0.962915727,325.290862 0.941987064,328.5771 0.941987064,328.5771 Z" fill="#5E000E"></path>
    </g>
</svg>
